raw/spot/spot-map.svg

<svg width="80" height="80" viewBox="0 0 80 80" fill="none" xmlns="http://www.w3.org/2000/svg">
<g id="&#231;&#169;&#186;&#231;&#138;&#182;&#230;&#128;&#129; Empty state/&#229;&#155;&#190;&#232;&#161;&#168;&#231;&#169;&#186;&#231;&#138;&#182;&#230;&#128;&#129;/&#229;&#156;&#176;&#229;&#155;&#190;">
<g id="Group 427318933">
<g id="Group 3465732">
<mask id="mask0_6140_220457" style="mask-type:alpha" maskUnits="userSpaceOnUse" x="11" y="13" width="58" height="58">
<rect id="Rectangle 34624115" x="11" y="13.3" width="57.2" height="57.2" rx="8.8" fill="#C4C4C4"/>
</mask>
<g mask="url(#mask0_6140_220457)">
<rect id="Rectangle 34624116" x="-13.2734" y="39.6741" width="76.1894" height="33" transform="rotate(-45 -13.2734 39.6741)" fill="#E3E7F5"/>
<rect id="Rectangle 34624117" x="48.4004" y="34.1014" width="49.6405" height="83.5652" transform="rotate(-45 48.4004 34.1014)" fill="#E3E7F5"/>
<rect id="Rectangle 34624118" x="8.80078" y="74.8013" width="49.6405" height="83.5652" transform="rotate(-45 8.80078 74.8013)" fill="#E3E7F5"/>
</g>
</g>
<ellipse id="Ellipse 374" cx="26.9508" cy="40.25" rx="7.15" ry="2.75" fill="#D3D8EA"/>
<path id="Vector" d="M26.9504 10C20.5808 10 15.4004 15.1388 15.4004 21.4549C15.4004 23.7998 16.1115 26.0569 17.4412 27.9557C17.5075 28.0695 17.5748 28.1792 17.6541 28.286L26.0846 39.3079C26.3136 39.5603 26.621 39.7 26.9504 39.7C27.2758 39.7 27.5851 39.5593 27.8533 39.261L36.2446 28.285C36.327 28.1752 36.3983 28.0555 36.4364 27.9856C37.7829 26.0708 38.5035 23.7907 38.5004 21.4549C38.5004 15.1388 33.319 10 26.9504 10ZM26.9504 25.551C25.8575 25.5504 24.8095 25.1194 24.036 24.3523C23.2626 23.5852 22.8269 22.5447 22.8245 21.4589C22.8536 20.3911 23.301 19.3767 24.0714 18.6316C24.8419 17.8866 25.8747 17.4697 26.9499 17.4697C28.0251 17.4697 29.0578 17.8866 29.8283 18.6316C30.5988 19.3767 31.0462 20.3911 31.0752 21.4589C31.0726 22.5443 30.6369 23.5844 29.8637 24.3513C29.0906 25.1181 28.0429 25.5492 26.9504 25.55V25.551Z" fill="#0066FF"/>
</g>
</g>
</svg>

<svg width="80" height="80" viewBox="0 0 80 80" fill="none" xmlns="http://www.w3.org/2000/svg"><g id="ç©ºç¶æ Empty state/å¾è¡¨ç©ºç¶æ/å°å¾"><g id="Group 427318933"><g id="Group 3465732"><mask id="mask0_6140_220457" style="mask-type:alpha" maskUnits="userSpaceOnUse" x="11" y="13" width="58" height="58"><rect id="Rectangle 34624115" x="11" y="13.3" width="57.2" height="57.2" rx="8.8" fill="#C4C4C4"/></mask><g mask="url(#mask0_6140_220457)" fill="#E3E7F5"><path id="Rectangle 34624116" transform="rotate(-45 -13.273 39.674)" d="M-13.273 39.674H62.916V72.674H-13.273z"/><path id="Rectangle 34624117" transform="rotate(-45 48.4 34.101)" d="M48.4 34.101H98.041V117.666H48.4z"/><path id="Rectangle 34624118" transform="rotate(-45 8.8 74.801)" d="M8.801 74.801H58.442V158.36599999999999H8.801z"/></g></g><ellipse id="Ellipse 374" cx="26.951" cy="40.25" rx="7.15" ry="2.75" fill="#D3D8EA"/><path id="Vector" d="M26.95 10c-6.37 0-11.55 5.139-11.55 11.455 0 2.345.711 4.602 2.041 6.5a3.5 3.5 0 0 0 .213.331l8.43 11.022c.23.252.537.392.866.392.326 0 .635-.14.903-.439l8.392-10.976c.082-.11.153-.23.191-.3a11.326 11.326 0 0 0 2.064-6.53C38.5 15.139 33.32 10 26.95 10zm0 15.551a4.142 4.142 0 0 1-2.914-1.199 4.088 4.088 0 0 1-1.212-2.893 4.088 4.088 0 0 1 1.247-2.827 4.141 4.141 0 0 1 2.879-1.162c1.075 0 2.108.417 2.878 1.162a4.087 4.087 0 0 1 1.247 2.827 4.088 4.088 0 0 1-1.211 2.892 4.142 4.142 0 0 1-2.914 1.199v.001z" fill="#06F"/></g></g></svg>
